X: 14909
T: Gathering Part 1, The
R: reel
M: 4/4
K: Gmajor
(3bag,' eg dgab|c'ebd agfd|bgeg dged|gfdB cdA2|
(3bag,' eg dgab|c'ddb dagd|cBcd GGgG|(3gdc,' AB G (3GGG|
fAgA fdde|fdgd adgf|egbd' ^c'a (3bag|fged ^cdAB|
dAeA fAgf|edcd cBAB|(3cBA Bc dGgG|(3gdc,' AB G2 z2|

